X:19
%%pagewidth 7.5in
%%score 1 2
T:Sellenger's Round with old harmony by Byrd.
M: 6/8
L: 1/8
K: C
V:1 clef-treble
V:2 clef-bass octave=-1
V:1
G3 G>AB|c3 d>ef & [EG]3 E>FG|d2c B>AB & F2E F2F|c6 &[EG]6|G2G G>AB & x3 x2 F|
V:2
!segno![GBd]2[FA] [EGc]2[DF]|"^a"G>cG- G>cG & C3 C3|A>Bc d2G- & F2C G2 G,|G>cG- GcG & C3 C3|[GBd]2[FA] [EGc]2[DF]|
V:1
c3 c>de & E>FG A2G|d2c B>AB & F2E G2F|c3-c2 &[EG]3-[EG]2!fine!||d & F|e3 e>dc & G>AB c3|d3-d2d &[GB]3-[GB]3|
V:2
[CGc]3 [Fc]2[Cc]|A>Bc d3 & F>GA G3|G>cG- G>c & C3 C2||G- & C|G>cG- G>cG- & C3 C3|G>GD- D>GD- & G,3 G,3|
V:1
B>cd d>cB & G6|A3-[Ad]2B & ^F3-F2[DG]|c>dc B2G & [EG]2[EG] [DG]2E|A>Bc B2G & F2E [DG]2D|A2G ^F>EF & F2C D2D|
V:2
D>GD- D>GD & G,3 G,3|d>cB A2G & D3 D3|[CGc]2[CGc] [Gd]2G|[Fc]2C G2[GB]|c2G A2A & F2E D2D|
V:1
G3-G>AB & [B,D]3-[B,D]>CD|c>dc B2G & E>FE D2G|A>Bc B2G & F2E D2D|A>BG ^F>EF & F2D D3|!D.S.![B,DG]6||
V:2
G2D zGD & zG,D G,3|G2G G>FE & C2C G,3|D2C GAB & x3 G,2G|c2B A>GA & F2G D2D|G2D zGD & zG,D G,3||

